img/Ico/Walk.svg

<svg width="30" height="30" viewBox="0 0 30 30" fill="none" xmlns="http://www.w3.org/2000/svg">
<path fill-rule="evenodd" clip-rule="evenodd" d="M16.889 0C15.4776 0 14.3334 1.14416 14.3334 2.55556C14.3334 3.96695 15.4776 5.11111 16.889 5.11111C18.3004 5.11111 19.4445 3.96695 19.4445 2.55556C19.4445 1.14416 18.3004 0 16.889 0ZM16.3334 2.55556C16.3334 2.24873 16.5821 2 16.889 2C17.1958 2 17.4445 2.24873 17.4445 2.55556C17.4445 2.86238 17.1958 3.11111 16.889 3.11111C16.5821 3.11111 16.3334 2.86238 16.3334 2.55556Z" fill="black"/>
<path d="M13.0224 23.3778C13.3537 22.936 13.2642 22.3092 12.8224 21.9778C12.3805 21.6465 11.7537 21.736 11.4224 22.1778L6.75571 28.4001C6.42434 28.8419 6.51388 29.4687 6.95571 29.8001C7.39754 30.1314 8.02434 30.0419 8.35571 29.6001L13.0224 23.3778Z" fill="black"/>
<path d="M14.0963 10.1179L12.7915 17.9468C12.7384 18.2653 12.8424 18.5899 13.0708 18.8183L17.6227 23.3702L20.6612 29.4473C20.9082 29.9412 21.5089 30.1415 22.0029 29.8945C22.4968 29.6475 22.6971 29.0468 22.4501 28.5528L19.339 22.3306C19.2909 22.2345 19.2277 22.1467 19.1517 22.0707L14.8489 17.7679L16.0004 10.859L19.293 14.1516C19.4028 14.2614 19.5366 14.3441 19.6839 14.3932L24.3505 15.9487C24.8745 16.1234 25.4408 15.8402 25.6155 15.3163C25.7901 14.7923 25.5069 14.226 24.983 14.0514L20.5403 12.5705L16.0485 8.0787C15.9101 7.93689 15.7285 7.83485 15.5199 7.79536C15.5125 7.79397 15.5052 7.79267 15.4978 7.79144C15.4893 7.79002 15.4808 7.78871 15.4723 7.78752C15.3335 7.76799 15.1971 7.77805 15.0695 7.81304L8.86868 9.36325C8.62734 9.42358 8.41716 9.5717 8.27917 9.77869L5.16806 14.4454C4.8617 14.9049 4.98588 15.5258 5.44541 15.8321C5.90493 16.1385 6.5258 16.0143 6.83216 15.5548L9.72882 11.2098L14.0963 10.1179Z" fill="black"/>
</svg>

<svg width="30" height="30" fill="none" xmlns="http://www.w3.org/2000/svg"><path fill-rule="evenodd" clip-rule="evenodd" d="M16.889 0a2.556 2.556 0 1 0 0 5.111 2.556 2.556 0 0 0 0-5.111zm-.556 2.556a.556.556 0 1 1 1.111 0 .556.556 0 0 1-1.11 0z" fill="#000"/><path d="M13.022 23.378a1 1 0 0 0-1.6-1.2L6.756 28.4a1 1 0 0 0 1.6 1.2l4.666-6.222z" fill="#000"/><path d="m14.096 10.118-1.305 7.829a1 1 0 0 0 .28.871l4.552 4.552 3.038 6.077a1 1 0 0 0 1.79-.894l-3.112-6.222a1.001 1.001 0 0 0-.187-.26l-4.303-4.303L16 10.859l3.293 3.293a1 1 0 0 0 .39.241l4.668 1.556a1 1 0 1 0 .632-1.898l-4.443-1.48-4.491-4.492a.995.995 0 0 0-.98-.266l-6.2 1.55a1 1 0 0 0-.59.416l-3.11 4.666a1 1 0 1 0 1.663 1.11L9.73 11.21l4.367-1.092z" fill="#000"/></svg>
